X:130
T:reel de l'Obstineux
C:Jean Duval
R:reel
M:4/4
L:1/8
Z:robin.beech@mcgill.ca
R:reel
K:D
DFAF GFEF | D2 DE DFAc | dcec dcBA | BABc B2 (3ABc |
d2 de fdAF | GFEF GABG | AGFA GFEF |1 D2 DE D2 z2 :|2 D2 DE D2 (3ABc |:
d2 dc dBFB | GFEF GABc | d2 dc dBFB | dgfe dcec |
d2 dc dBFB | GFEF GABG | AGFA GFEF | D2 DE D2 (3ABc :|

